X:1
T:Memories of Childhood
T:Memories of Childhood
T:Frederick Arthur Graves
T:Frederick Arthur Graves, 1895
T:Public Domain Courtesy of the Cyber Hymnal™
T:Public Domain Courtesy of the Cyber Hymnal™
C:Frederick Arthur Graves
Z:Public Domain
Z:Courtesy of the Cyber Hymnal™
%%score 1 2 3
L:1/8
Q:1/4=105
M:4/4
K:A
V:1 treble 
V:2 treble 
V:3 bass 
V:1
 CD | E2 (EF) E2 AB | (cd) [GB]4 B,C | D2 (DD) GG (FE) | C6 CD | E2 (EF) (EA) (ce) | d2 F4 BB | %7
w: 1.~There’s a|dear old * home in the|val- * ley, It has|stood there * ma- ny long *|years, ’Twas the|scene of * joys * and *|sor- rows, ’Twas the|
w: 2.~That vine-|co- vered * home, how I|loved * it, With its|low hanging * po- rch, near~the *|well; O, to|think once~a- * gain * of~my *|child- hood, Brings a|
w: 3.~How she|watched o’er~the * flowers in the|gar- * den, Trained the|vines running * o- * ver *|the wall, Wreath-|ing window * with * bright *|morning glor- ies, ’Neath|
 A2 (GA) c2 (BB) | A6 GA | B2 B^A B2 cd | d2 c4 cd | e2 cd e2 ec | B6 CD | E2 EF (EA)ce | %14
w: scene of * smiles and *|tears; We were|rocked in the old- fa- shioned|cra- dle, Sung to|sleep in the old rock- ing|chair; But the|mo- ther who sang * then so|
w: thrill that~my * tongue cannot *|tell; But the|mem- o- ry dear- er than|o- ther, As I|look o’er the years fraught with|care; Is the|mem- ory of that * pre- cious|
w: the great * maple tree *|shading all; But|her work here on earth now|is end- ed, Ne-|ver- more will I hear her|in prayer; Yet|I know she is * now with|
 d2 F4 BB | A2 GA c2 BB | A6 |] %17
w: sweet- ly, Sings to-|day in the home o- ver|there.|
w: mo- ther, As she|sat in the old rock- ing|chair.|
w: the Sav- ior, And|I’ll meet her at last o-|ver|
V:2
 z2 | z2 ([E,A,C]2 [E,A,C]2 [E,A,C]2) | z2 ([G,B,D]2 [G,B,D]2 [G,B,D]2) | %3
 z2 ([G,B,D]2 [G,B,D]2 [G,B,D]2) | z2 ([E,A,C]2 [E,A,C]2) [E,A,C]2 | %5
 z2 ([E,A,C]2 [E,A,C]2 [E,A,C]2) | z2 ([F,A,D]2 [F,A,D]2 [F,A,D]2) | %7
 z2 ([E,A,C]2 [E,A,CE]2 [E,G,B,D]2) | z2 ([E,A,C]2 [E,A,C]2) z2 | z2 [G,B,D]2 z2 [G,B,D]2 | %10
 z2 ([E,A,C]2 [E,A,C]2 [E,A,C]2) | z2 [E,A,C]2 z2 [E,A,C]2 | z2 ([G,B,D]2 [G,B,D]2) [E,A,C]2 | %13
 z2 ([E,A,C]2 [E,A,C]2 [E,A,C]2) | z2 ([F,A,D]2 [F,A,D]2 [F,A,D]2) | z2 ([A,C]2 [A,CE]2 [G,B,D]2) | %16
 [E,A,C]6 |] %17
V:3
 z2 | A,,6 z2 | E,6 z2 | E,6 z2 | A,,6 z2 | A,,6 z2 | D,6 z2 | E,8 | A,,6 z2 | E,2 z2 E,2 z2 | %10
 A,,6 z2 | A,,2 z2 A,,2 z2 | E,6 z2 | A,,6 z2 | D,6 z2 | (E,8 | A,,6) |] %17

